X:1
T:Title
%%score { ( 1 3 ) | ( 2 4 ) }
L:1/8
M:6/8
K:C
V:1 treble nm="Grand Piano"
V:3 treble 
V:2 bass 
V:4 bass 
V:1
 z3 z[Q:1/4=87] [CE][DF] | [EG]>[EG][EG] GAB | [Ec][GB][FA] [EG][CE][EG] | %3
 [Ec]>[Ec][Ec] [^Fe]2 [Fd] | [Gd]3- [Gd][CE][DF] | [EG]>[EG][EG] GAB | [Ec][GB][FA] [EG][EG][EA] | %7
 B>BB [^FB]2 [FA] |[M:2/4] G4 |[M:1/4] GG |[M:3/4] d>d d e2 d | c2- [Fc-][Ec] [CEG][CEG] | %12
 [CFA]>[CFA] [CFA] [CAc]2 [Ad] | e2- [Ae-][^Ge] z [Ge] | [Ae]d Ad- d/e/d |[M:13/16] dcGc3/2cc | %16
[M:3/4] c>c c d2 G | [Ge]3 [Af]3 | e>d c d2 B |[M:2/4] [Ec]4 |] %20
V:2
 z3 z [C,G,]2 | [C,C]>[C,C][C,C][K:treble] [G,B,F][G,CF][G,DF] | %2
 [C,C][C,C][C,C] [C,C][C,G,][C,G,] | [C,G,]>[C,G,][C,G,] [D,C]2 [D,C] | [G,B,]3- [G,B,] [C,G,]2 | %5
 [C,C]>[C,C][C,C][K:treble] [G,B,F][G,CF][G,DF] | [C,C][C,C][C,C] [C,C][C,G,][C,G,] | %7
 [D,G,D]>[D,G,D][D,G,D] [D,D]2 [D,C] |[M:2/4] [G,B,]4 |[M:1/4] G,G, | %10
[M:3/4][K:treble] [G,B,F]>[G,B,F] [G,B,F] [G,B,G]2 [G,B,F] | z2 A,G, C,C, | F,>F, F, F,2 [F,A,] | %13
 B,2 CB, z [E,B,] | [F,A,][F,A,F] [F,A,F][F,A,F]- [F,A,F]/[K:treble][F,A,F]/[F,A,F] | %15
[M:13/16] [G,CE][G,CE][G,CE][^G,C_E]3/2[G,DF][G,E^F] | %16
[M:3/4] [G,EG]>[G,EG] [G,EG] [G,B,G]2[K:bass] G, | [C,C]3 [F,C]3 | %18
 [G,CG]>[G,FG] [G,EG] [G,B,F]2 [G,DF] |[M:2/4][K:bass] [C,C]4 |] %20
V:3
 x6 | x6 | x6 | x6 | x6 | x6 | x6 | x6 |[M:2/4] x4 |[M:1/4] x2 |[M:3/4] x6 | [CE]2 z2 z2 | x6 | %13
 ^G2 z2 z2 | x6 |[M:13/16] x13/2 |[M:3/4] x6 | x6 | x6 |[M:2/4] x4 |] %20
V:4
 x6 | x3[K:treble] x3 | x6 | x6 | x6 | x3[K:treble] x3 | x6 | x6 |[M:2/4] x4 |[M:1/4] x2 | %10
[M:3/4][K:treble] x6 | C,4 z2 | x6 | E,4 z2 | x9/2[K:treble] x3/2 |[M:13/16] x13/2 | %16
[M:3/4] x5[K:bass] x | x6 | x6 |[M:2/4][K:bass] x4 |] %20

